X: 1
T: Finbar Dwyer's
M: 4/4
L: 1/8
R: reel
K: Ador
~d2dc AcGc|AGEF GEBd|~c3d ~c3A|GEAG EAGE|
D2dc AcGc|AGEF GEag|fage d2AF|GEAG FDD2:|
fdd^c defd|g2ga bgag|f2df ~a3f|~g3a fdde|
fdd^c defd|g2ga bgag|fage d2AF|GEAG FDD2:|
